packages/match-logos/mono/svg/american-red-cross.svg

<svg fill="none" height="42" viewBox="0 0 132 42" width="132" xmlns="http://www.w3.org/2000/svg" xmlns:xlink="http://www.w3.org/1999/xlink"><clipPath id="a"><path d="m0 0h131.886v42h-131.886z"/></clipPath><g clip-path="url(#a)" clip-rule="evenodd" fill="#1f304c" fill-rule="evenodd"><path d="m63.303 10.9758h-2.2628l1.149-3.70793 1.1209 3.70793zm-7.0493 3.8137h3.574l.4652-1.4592h3.6657l.4652 1.4592h3.5741l-3.9336-10.52464h-3.7855z"/><path d="m71.9527 8.19136c.2356-.4323.5931-.78577 1.028-1.0164.435-.23063.9282-.32824 1.4182-.28068.399-.00003.7957.05937 1.1772.17623.3298.08449.6362.24252.8963.46227.26.21975.4669.49553.6052.80663.2256-.50755.9235-1.44513 2.6858-1.44513.7781-.02059 1.5345.25679 2.1148.77543.2674.30523.4682.66285.5896 1.05005.1214.38719.1607.79545.1154 1.19869v4.87115h-3.0171v-4.0393c0-.4935-.0001-1.32531-1.0716-1.32531-.1627-.01215-.3261.01305-.4777.07366-.1515.06062-.2872.15507-.3967.27612s-.1898.26553-.235.42233c-.0451.1569-.0539.3219-.0255.4827v4.1309h-3.0735v-4.145c.0005-.1491-.0137-.2978-.0423-.4441-.0531-.22855-.1858-.43069-.3744-.57021-.1886-.13951-.4208-.20727-.6548-.19114-.307-.00838-.6053.10284-.8318.31017-.1059.11673-.1867.25388-.2376.40298-.051.1491-.0708.307-.0585.4641v4.2296h-3.0735v-7.75429h2.9395v1.09969z"/><path d="m86.9889 9.86203c.0107-.30376.1371-.59192.3533-.80553.2163-.21361.506-.33649.8098-.34349.2361-.00648.4673.06844.6547.2122s.3196.3476.3745.57732c.0218.11881.0359.23888.0423.3595zm2.6646 2.07247c-.1004.2936-.2906.5482-.5436.7278s-.556.2752-.8662.2733c-.1704.0067-.3403-.0217-.4992-.0836s-.3033-.1558-.4243-.276c-.1318-.1467-.2327-.3184-.2969-.5049s-.0903-.3839-.0767-.5807h5.3927c0-1.1772-.0423-2.46018-1.1772-3.57397-.8458-.77067-1.9579-1.18266-3.1017-1.14905-2.5025 0-4.2296 1.62135-4.2296 4.14502-.0283.5629.0617 1.1255.2642 1.6515.2026.526.5131 1.0036.9117 1.4022.3985.3985.8762.7091 1.4022.9116.526.2026 1.0886.2926 1.6515.2643.8089.0423 1.6144-.1313 2.3341-.5029s1.3277-.9279 1.7616-1.6119l-2.5308-1.0574z"/><path d="m96.421 7.74019c.3413-.32149.75-.56295 1.1962-.70683.4463-.14388.919-.18657 1.3839-.12499v2.59415c-.2115 0-.4159 0-.6274 0-1.8047 0-1.8329 1.17728-1.847 1.68478v3.6375h-3.0523v-7.75431h2.9536v.70493z"/><path d="m99.9879 4.27191h3.0521v2.04431h-3.0732v-2.04431zm0 2.81974h3.0521v7.75425h-3.0732v-7.75425z"/><path d="m112.338 12.717c-.172.4239-.426.8096-.747 1.135-.423.4158-.928.74-1.482.9522-.555.2123-1.147.308-1.74.2814-2.551 0-4.116-1.7271-4.116-4.2296-.035-1.09914.359-2.16867 1.099-2.98187.427-.39731.929-.70596 1.475-.90804.547-.20208 1.129-.2936 1.712-.26921.582-.02395 1.164.07054 1.709.27773s1.043.52277 1.463.9277c.241.2374.448.508.613.80364l-2.34 1.32525c-.039-.31924-.192-.61388-.43-.83003s-.546-.33939-.867-.34719c-.938 0-1.41.92346-1.41 2.11482 0 .6133.12 1.7764 1.325 1.7764.339-.0348.657-.181.905-.4156.247-.2346.41-.5446.463-.8815l2.34 1.283z"/><path d="m118.14 11.2014c.018.3103-.033.6208-.148.9094-.137.2576-.34.4746-.587.6293-.248.1547-.531.2415-.823.2518-.09.0139-.181.0091-.269-.0139-.088-.0231-.17-.064-.242-.1202-.071-.0562-.13-.1265-.173-.2065s-.07-.168-.077-.2585c.014-.1694.083-.3296.196-.4566.114-.127.265-.2141.431-.2484.268-.0916.536-.148.79-.2115.253-.0634.613-.1973.909-.296zm-2.03-1.87511c.105-.53575.296-.70493 1.001-.70493.881 0 1.029.35951 1.043.88116-.537.15606-1.087.26688-1.642.33132-1.354.17626-2.193.29606-2.891 1.01516-.215.2173-.385.4763-.497.761-.113.2848-.167.5894-.158.8955 0 1.3112.853 2.4885 2.819 2.4885.914.039 1.815-.2345 2.552-.7755v.5992h3.024c-.106-.1324-.184-.285-.231-.4485-.046-.1635-.058-.3346-.036-.5031v-4.22964c0-.92346 0-2.81974-3.666-2.81974-.951-.03902-1.899.13938-2.77.52165-.395.19037-.732.4805-.979.84158-.248.36109-.396.78059-.431 1.21684l2.876-.07756z"/><path d="m125.485 8.09969c.272-.41369.651-.7457 1.097-.96053.446-.21482.941-.30435 1.434-.25899.382-.02914.766.01821 1.129.13925.363.12105.698.31337.986.56568.277.31669.489.68556.622 1.08501s.185.82143.153 1.24127v4.87112h-3.073v-4.2296c.032-.149.028-.3035-.011-.4507-.039-.14731-.113-.28322-.214-.39665-.102-.11344-.229-.20118-.372-.25607-.142-.05489-.295-.07537-.446-.05974-.164-.01329-.329.01177-.481.0732-.153.06144-.289.15755-.397.2807-.109.12316-.188.26996-.23.42876-.042.1589-.047.3253-.013.4862v4.1168h-3.074v-7.75426h2.905v1.02922z"/><path d="m61.0896 19.7663c.578 0 1.6213 0 1.6213 1.2337 0 1.2336-1.0574 1.2195-1.6072 1.2195h-1.4099v-2.4602h1.3746zm-4.709 8.3323h3.3414v-3.7079h.9869l2.0443 3.7079h3.6939l-2.566-4.2296c.5098-.1539.9743-.4298 1.3535-.8036.2667-.2822.4749-.6143.6128-.9772.138-.3629.2028-.7495.1908-1.1376.0286-.629-.1287-1.2526-.4521-1.7929-.3234-.5402-.7987-.9734-1.3666-1.2454-.8383-.2626-1.717-.3724-2.5942-.3242h-5.2447v10.5387z"/><path d="m69.5419 23.1642c.0107-.3038.1371-.592.3533-.8056.2163-.2136.506-.3365.8098-.3435.2361-.0064.4673.0685.6547.2122.1874.1438.3196.3476.3745.5774.0218.1188.0359.2389.0423.3595zm2.6717 2.0725c-.1005.2935-.2906.5481-.5436.7277s-.556.2752-.8663.2733c-.1704.0067-.3403-.0217-.4992-.0836-.1589-.0618-.3033-.1558-.4243-.2759-.1317-.1468-.2327-.3185-.2969-.505-.0641-.1864-.0902-.3839-.0767-.5806h5.3928c0-1.1773-.0423-2.4603-1.1773-3.5741-.8458-.7706-1.9579-1.1826-3.1017-1.149-2.5025 0-4.2296 1.6214-4.2296 4.145-.0283.5629.0617 1.1255.2643 1.6515.2025.526.5131 1.0037.9116 1.4022.3986.3986.8763.7091 1.4022.9117.526.2025 1.0886.2925 1.6515.2642.8088.0416 1.6141-.1323 2.3337-.5039.7195-.3715 1.3276-.9274 1.762-1.6109l-2.5307-1.0574z"/><path d="m79.0726 25.7442c-.335-.4328-.4891-.9786-.43-1.5226-.0036-.3056.0271-.6107.0916-.9094.0399-.2649.1721-.5071.3734-.6838.2012-.1768.4585-.2766.7263-.282.2521.0109.4937.1044.6873.2662.1937.1618.3287.3829.3842.6291.0917.3133.1321.6395.1198.9657.0559.5396-.0869 1.081-.4018 1.5227-.2032.2124-.4816.3364-.7754.3454-.1446.0018-.288-.026-.4213-.0818-.1334-.0557-.2539-.1383-.3541-.2425zm1.8751-4.8288c-.2549-.2594-.5622-.4614-.9013-.5927-.3392-.1313-.7024-.1888-1.0655-.1686-1.6848 0-3.3696 1.2054-3.3696 3.9053 0 2.432 1.2689 4.2296 3.4754 4.2296.396.0075.7901-.057 1.1631-.1903.3132-.1057.5879-.302.7895-.564v.564h2.9678v-10.5247h-3.0735v3.3414z"/><path d="m99.5157 25.3847c-.2608.548-.6083 1.0502-1.0292 1.4874-1.1055 1.0307-2.5706 1.5874-4.0816 1.5509-3.7573 0-5.4562-2.8197-5.4562-5.5267 0-2.8197 1.8892-5.71 5.4562-5.71.7831-.0162 1.5614.1259 2.2882.4179.7268.2919 1.3871.7276 1.9414 1.281.3561.3655.6534.7841.8812 1.2407l-2.8198 1.4099c-.1312-.4839-.413-.9134-.8046-1.2265-.3916-.313-.8727-.4933-1.3736-.5147-.2606-.0041-.5195.0436-.7616.1404-.242.0968-.4624.2408-.6483.4235-.5653.6545-.8491 1.5058-.7895 2.3686 0 1.565.5781 3.0383 2.2206 3.0383.4931-.016.9673-.1938 1.3495-.5059.3821-.3121.6511-.7412.7653-1.2212l2.8197 1.3746z"/><path d="m103.195 21.0493c.342-.3214.75-.5629 1.197-.7068.446-.1439.919-.1866 1.383-.125v2.5942c-.211 0-.416 0-.627 0-1.805 0-1.833 1.1772-1.847 1.6848v3.6374h-3.081v-7.7543h2.954v.705z"/><path d="m110.794 22.2125c1.41-.0423 1.41 1.5085 1.41 1.9668 0 1.1631-.345 2.0724-1.41 2.0724-1.254 0-1.409-1.297-1.409-2.0443 0-.867.253-1.9667 1.409-1.9949zm.092-2.1642c-2.82 0-4.561 1.713-4.561 4.2296 0 2.0725 1.283 4.0957 4.399 4.0957 2.918 0 4.603-1.713 4.603-4.145.021-1.1478-.412-2.2575-1.205-3.0876-.9-.7665-2.055-1.1665-3.236-1.1209z"/><path d="m117.548 25.279c.326.3445.723.6139 1.163.7895.386.1643.8.2506 1.22.2537.169.0323.344.0013.492-.0871.149-.0883.259-.2278.311-.3922-.046-.164-.15-.3058-.292-.3991-.143-.0933-.314-.1318-.483-.1085-.543-.0867-1.08-.2068-1.607-.3595-.705-.2115-2.115-.6274-2.115-2.2628.004-.3307.075-.6572.209-.9599.133-.3028.325-.5757.566-.8025.766-.6284 1.739-.9477 2.728-.8952.587.0044 1.171.0753 1.742.2115.709.1429 1.374.4548 1.938.9093l-1.657 1.5086c-.577-.4223-1.266-.6672-1.98-.705-.12 0-.656.0001-.656.4019 0 .2819.204.3313 1.234.578.711.1077 1.407.3018 2.072.5781.369.1879.678.476.892.8313.213.3553.322.7634.314 1.1777 0 1.5227-1.269 2.8621-3.666 2.8621-1.522.0148-2.995-.5382-4.131-1.5509l1.713-1.565z"/><path d="m125.81 25.279c.325.3445.722.6139 1.163.7895.386.1643.8.2506 1.219.2537.17.0323.345.0013.493-.0871.148-.0883.259-.2278.311-.3922-.046-.164-.15-.3058-.293-.3991-.142-.0933-.314-.1318-.482-.1085-.543-.0866-1.08-.2067-1.608-.3595-.705-.2115-2.114-.6274-2.114-2.2628.004-.3307.075-.6572.208-.9599.133-.3028.326-.5757.567-.8025.766-.6284 1.739-.9477 2.728-.8952.587.0044 1.171.0753 1.741.2115.71.1423 1.375.4543 1.939.9093l-1.657 1.5086c-.578-.4223-1.266-.6672-1.981-.705-.119 0-.655.0001-.655.4019 0 .2819.211.3313 1.24.578.712.1077 1.408.3018 2.073.5781.369.1879.678.476.891.8313.214.3553.322.7634.314 1.1777 0 1.5227-1.268 2.8621-3.665 2.8621-1.522.0148-2.995-.5382-4.131-1.5509l1.713-1.565z"/><path d="m14 14h-14v14h14v14h14v-14h14v-14h-14v-14h-14z"/></g></svg>

<svg width="132" height="42" viewBox="0 0 132 42" fill="none" xmlns="http://www.w3.org/2000/svg">
<g clip-path="url(#clip0)">
<path fill-rule="evenodd" clip-rule="evenodd" d="M14 14H0V28H14V42H28V28H42V14H28V0H14V14Z" fill="#1F304C"/>
<path fill-rule="evenodd" clip-rule="evenodd" d="M63.303 10.9758H61.0402L62.1892 7.26787L63.3101 10.9758H63.303ZM56.2537 14.7895H59.8277L60.2929 13.3303H63.9586L64.4238 14.7895H67.9979L64.0643 4.26486H60.2788L56.2537 14.7895Z" fill="#1F304C"/>
<path fill-rule="evenodd" clip-rule="evenodd" d="M71.9527 8.19136C72.1883 7.75906 72.5458 7.40559 72.9807 7.17496C73.4157 6.94433 73.9089 6.84672 74.3989 6.89428C74.7979 6.89425 75.1946 6.95365 75.5761 7.07051C75.9059 7.155 76.2123 7.31303 76.4724 7.53278C76.7324 7.75253 76.9393 8.02831 77.0776 8.33941C77.3032 7.83186 78.0011 6.89428 79.7634 6.89428C80.5415 6.87369 81.2979 7.15107 81.8782 7.66971C82.1456 7.97494 82.3464 8.33256 82.4678 8.71976C82.5892 9.10695 82.6285 9.51521 82.5832 9.91845V14.7896H79.5661V10.7503C79.5661 10.2568 79.566 9.42499 78.4945 9.42499C78.3318 9.41284 78.1684 9.43804 78.0168 9.49865C77.8653 9.55927 77.7296 9.65372 77.6201 9.77477C77.5106 9.89582 77.4303 10.0403 77.3851 10.1971C77.34 10.354 77.3312 10.519 77.3596 10.6798V14.8107H74.2861V10.6657C74.2866 10.5166 74.2724 10.3679 74.2438 10.2216C74.1907 9.99305 74.058 9.79091 73.8694 9.65139C73.6808 9.51188 73.4486 9.44412 73.2146 9.46025C72.9076 9.45187 72.6093 9.56309 72.3828 9.77042C72.2769 9.88715 72.1961 10.0243 72.1452 10.1734C72.0942 10.3225 72.0744 10.4804 72.0867 10.6375V14.8671H69.0132V7.11281H71.9527V8.2125V8.19136Z" fill="#1F304C"/>
<path fill-rule="evenodd" clip-rule="evenodd" d="M86.9889 9.86203C86.9996 9.55827 87.126 9.27011 87.3422 9.0565C87.5585 8.84289 87.8482 8.72001 88.152 8.71301C88.3881 8.70653 88.6193 8.78145 88.8067 8.92521C88.9941 9.06897 89.1263 9.27281 89.1812 9.50253C89.203 9.62134 89.2171 9.74141 89.2235 9.86203H86.9889ZM89.6535 11.9345C89.5531 12.2281 89.3629 12.4827 89.1099 12.6623C88.8569 12.8419 88.5539 12.9375 88.2437 12.9356C88.0733 12.9423 87.9034 12.9139 87.7445 12.852C87.5856 12.7901 87.4412 12.6962 87.3202 12.576C87.1884 12.4293 87.0875 12.2576 87.0233 12.0711C86.9591 11.8846 86.933 11.6872 86.9466 11.4904H92.3393C92.3393 10.3132 92.297 9.03022 91.1621 7.91643C90.3163 7.14576 89.2042 6.73377 88.0604 6.76738C85.5579 6.76738 83.8308 8.38873 83.8308 10.9124C83.8025 11.4753 83.8925 12.0379 84.095 12.5639C84.2976 13.0899 84.6081 13.5675 85.0067 13.9661C85.4052 14.3646 85.8829 14.6752 86.4089 14.8777C86.9349 15.0803 87.4975 15.1703 88.0604 15.142C88.8693 15.1843 89.6748 15.0107 90.3945 14.6391C91.1142 14.2675 91.7222 13.7112 92.1561 13.0272L89.6253 11.9698L89.6535 11.9345Z" fill="#1F304C"/>
<path fill-rule="evenodd" clip-rule="evenodd" d="M96.421 7.74019C96.7623 7.4187 97.171 7.17724 97.6172 7.03336C98.0635 6.88948 98.5362 6.84679 99.0011 6.90837V9.50252C98.7896 9.50252 98.5852 9.50252 98.3737 9.50252C96.569 9.50252 96.5408 10.6798 96.5267 11.1873V14.8248H93.4744V7.07049H96.428V7.77542L96.421 7.74019Z" fill="#1F304C"/>
<path fill-rule="evenodd" clip-rule="evenodd" d="M99.9879 4.27191H103.04V6.31622H99.9668V4.27191H99.9879ZM99.9879 7.09165H103.04V14.8459H99.9668V7.09165H99.9879Z" fill="#1F304C"/>
<path fill-rule="evenodd" clip-rule="evenodd" d="M112.338 12.717C112.166 13.1409 111.912 13.5266 111.591 13.852C111.168 14.2678 110.663 14.592 110.109 14.8042C109.554 15.0165 108.962 15.1122 108.369 15.0856C105.818 15.0856 104.253 13.3585 104.253 10.856C104.218 9.75686 104.612 8.68733 105.352 7.87413C105.779 7.47682 106.281 7.16817 106.827 6.96609C107.374 6.76401 107.956 6.67249 108.539 6.69688C109.121 6.67293 109.703 6.76742 110.248 6.97461C110.793 7.1818 111.291 7.49738 111.711 7.90231C111.952 8.13971 112.159 8.41031 112.324 8.70595L109.984 10.0312C109.945 9.71196 109.792 9.41732 109.554 9.20117C109.316 8.98502 109.008 8.86178 108.687 8.85398C107.749 8.85398 107.277 9.77744 107.277 10.9688C107.277 11.5821 107.397 12.7452 108.602 12.7452C108.941 12.7104 109.259 12.5642 109.507 12.3296C109.754 12.095 109.917 11.785 109.97 11.4481L112.31 12.7311L112.338 12.717Z" fill="#1F304C"/>
<path fill-rule="evenodd" clip-rule="evenodd" d="M118.14 11.2014C118.158 11.5117 118.107 11.8222 117.992 12.1108C117.855 12.3684 117.652 12.5854 117.405 12.7401C117.157 12.8948 116.874 12.9816 116.582 12.9919C116.492 13.0058 116.401 13.001 116.313 12.978C116.225 12.9549 116.143 12.914 116.071 12.8578C116 12.8016 115.941 12.7313 115.898 12.6513C115.855 12.5713 115.828 12.4833 115.821 12.3928C115.835 12.2234 115.904 12.0632 116.017 11.9362C116.131 11.8092 116.282 11.7221 116.448 11.6878C116.716 11.5962 116.984 11.5398 117.238 11.4763C117.491 11.4129 117.851 11.279 118.147 11.1803L118.14 11.2014ZM116.11 9.32629C116.215 8.79054 116.406 8.62136 117.111 8.62136C117.992 8.62136 118.14 8.98087 118.154 9.50252C117.617 9.65858 117.067 9.7694 116.512 9.83384C115.158 10.0101 114.319 10.1299 113.621 10.849C113.406 11.0663 113.236 11.3253 113.124 11.61C113.011 11.8948 112.957 12.1994 112.966 12.5055C112.966 13.8167 113.819 14.994 115.785 14.994C116.699 15.033 117.6 14.7595 118.337 14.2185V14.8177H121.361C121.255 14.6853 121.177 14.5327 121.13 14.3692C121.084 14.2057 121.072 14.0346 121.094 13.8661V9.63646C121.094 8.713 121.094 6.81672 117.428 6.81672C116.477 6.7777 115.529 6.9561 114.658 7.33837C114.263 7.52874 113.926 7.81887 113.679 8.17995C113.431 8.54104 113.283 8.96054 113.248 9.39679L116.124 9.31923L116.11 9.32629Z" fill="#1F304C"/>
<path fill-rule="evenodd" clip-rule="evenodd" d="M125.485 8.09969C125.757 7.686 126.136 7.35399 126.582 7.13916C127.028 6.92434 127.523 6.83481 128.016 6.88017C128.398 6.85103 128.782 6.89838 129.145 7.01942C129.508 7.14047 129.843 7.33279 130.131 7.5851C130.408 7.90179 130.62 8.27066 130.753 8.67011C130.886 9.06956 130.938 9.49154 130.906 9.91138V14.7825H127.833V10.5529C127.865 10.4039 127.861 10.2494 127.822 10.1022C127.783 9.95489 127.709 9.81898 127.608 9.70555C127.506 9.59211 127.379 9.50437 127.236 9.44948C127.094 9.39459 126.941 9.37411 126.79 9.38974C126.626 9.37645 126.461 9.40151 126.309 9.46294C126.156 9.52438 126.02 9.62049 125.912 9.74364C125.803 9.8668 125.724 10.0136 125.682 10.1724C125.64 10.3313 125.635 10.4977 125.669 10.6586V14.7754H122.595V7.02114H125.5V8.05036L125.485 8.09969Z" fill="#1F304C"/>
<path fill-rule="evenodd" clip-rule="evenodd" d="M61.0896 19.7663C61.6676 19.7663 62.7109 19.7663 62.7109 21C62.7109 22.2336 61.6535 22.2195 61.1037 22.2195H59.6938V19.7593H61.0684L61.0896 19.7663ZM56.3806 28.0986H59.722V24.3907H60.7089L62.7532 28.0986H66.4471L63.8811 23.869C64.3909 23.7151 64.8554 23.4392 65.2346 23.0654C65.5013 22.7832 65.7095 22.4511 65.8474 22.0882C65.9854 21.7253 66.0502 21.3387 66.0382 20.9506C66.0668 20.3216 65.9095 19.698 65.5861 19.1577C65.2627 18.6175 64.7874 18.1843 64.2195 17.9123C63.3812 17.6497 62.5025 17.5399 61.6253 17.5881H56.3806V28.1268V28.0986Z" fill="#1F304C"/>
<path fill-rule="evenodd" clip-rule="evenodd" d="M69.5419 23.1642C69.5526 22.8604 69.679 22.5722 69.8952 22.3586C70.1115 22.145 70.4012 22.0221 70.705 22.0151C70.9411 22.0087 71.1723 22.0836 71.3597 22.2273C71.5471 22.3711 71.6793 22.5749 71.7342 22.8047C71.756 22.9235 71.7701 23.0436 71.7765 23.1642H69.5419ZM72.2136 25.2367C72.1131 25.5302 71.923 25.7848 71.67 25.9644C71.417 26.144 71.114 26.2396 70.8037 26.2377C70.6333 26.2444 70.4634 26.216 70.3045 26.1541C70.1456 26.0923 70.0012 25.9983 69.8802 25.8782C69.7485 25.7314 69.6475 25.5597 69.5833 25.3732C69.5192 25.1868 69.4931 24.9893 69.5066 24.7926H74.8994C74.8994 23.6153 74.8571 22.3323 73.7221 21.2185C72.8763 20.4479 71.7642 20.0359 70.6204 20.0695C68.1179 20.0695 66.3908 21.6909 66.3908 24.2145C66.3625 24.7774 66.4525 25.34 66.6551 25.866C66.8576 26.392 67.1682 26.8697 67.5667 27.2682C67.9653 27.6668 68.443 27.9773 68.9689 28.1799C69.4949 28.3824 70.0575 28.4724 70.6204 28.4441C71.4292 28.4857 72.2345 28.3118 72.9541 27.9402C73.6736 27.5687 74.2817 27.0128 74.7161 26.3293L72.1854 25.2719L72.2136 25.2367Z" fill="#1F304C"/>
<path fill-rule="evenodd" clip-rule="evenodd" d="M79.0726 25.7442C78.7376 25.3114 78.5835 24.7656 78.6426 24.2216C78.639 23.916 78.6697 23.6109 78.7342 23.3122C78.7741 23.0473 78.9063 22.8051 79.1076 22.6284C79.3088 22.4516 79.5661 22.3518 79.8339 22.3464C80.086 22.3573 80.3276 22.4508 80.5212 22.6126C80.7149 22.7744 80.8499 22.9955 80.9054 23.2417C80.9971 23.555 81.0375 23.8812 81.0252 24.2074C81.0811 24.747 80.9383 25.2884 80.6234 25.7301C80.4202 25.9425 80.1418 26.0665 79.848 26.0755C79.7034 26.0773 79.56 26.0495 79.4267 25.9937C79.2933 25.938 79.1728 25.8554 79.0726 25.7512V25.7442ZM80.9477 20.9154C80.6928 20.656 80.3855 20.454 80.0464 20.3227C79.7072 20.1914 79.344 20.1339 78.9809 20.1541C77.2961 20.1541 75.6113 21.3595 75.6113 24.0594C75.6113 26.4914 76.8802 28.289 79.0867 28.289C79.4827 28.2965 79.8768 28.232 80.2498 28.0987C80.563 27.993 80.8377 27.7967 81.0393 27.5347V28.0987H84.0071V17.574H80.9336V20.9154H80.9477Z" fill="#1F304C"/>
<path fill-rule="evenodd" clip-rule="evenodd" d="M99.5157 25.3847C99.2549 25.9327 98.9074 26.4349 98.4865 26.8721C97.381 27.9028 95.9159 28.4595 94.4049 28.423C90.6476 28.423 88.9487 25.6033 88.9487 22.8963C88.9487 20.0766 90.8379 17.1863 94.4049 17.1863C95.188 17.1701 95.9663 17.3122 96.6931 17.6042C97.4199 17.8961 98.0802 18.3318 98.6345 18.8852C98.9906 19.2507 99.2879 19.6693 99.5157 20.1259L96.6959 21.5358C96.5647 21.0519 96.2829 20.6224 95.8913 20.3093C95.4997 19.9963 95.0186 19.816 94.5177 19.7946C94.2571 19.7905 93.9982 19.8382 93.7561 19.935C93.5141 20.0318 93.2937 20.1758 93.1078 20.3585C92.5425 21.013 92.2587 21.8643 92.3183 22.7271C92.3183 24.2921 92.8964 25.7654 94.5389 25.7654C95.032 25.7494 95.5062 25.5716 95.8884 25.2595C96.2705 24.9474 96.5395 24.5183 96.6537 24.0383L99.4734 25.4129L99.5157 25.3847Z" fill="#1F304C"/>
<path fill-rule="evenodd" clip-rule="evenodd" d="M103.195 21.0493C103.537 20.7279 103.945 20.4864 104.392 20.3425C104.838 20.1986 105.311 20.1559 105.775 20.2175V22.8117C105.564 22.8117 105.359 22.8117 105.148 22.8117C103.343 22.8117 103.315 23.9889 103.301 24.4965V28.1339H100.22V20.3796H103.174V21.0846L103.195 21.0493Z" fill="#1F304C"/>
<path fill-rule="evenodd" clip-rule="evenodd" d="M110.794 22.2125C112.204 22.1702 112.204 23.721 112.204 24.1793C112.204 25.3424 111.859 26.2517 110.794 26.2517C109.54 26.2517 109.385 24.9547 109.385 24.2074C109.385 23.3404 109.638 22.2407 110.794 22.2125ZM110.886 20.0483C108.066 20.0483 106.325 21.7613 106.325 24.2779C106.325 26.3504 107.608 28.3736 110.724 28.3736C113.642 28.3736 115.327 26.6606 115.327 24.2286C115.348 23.0808 114.915 21.9711 114.122 21.141C113.222 20.3745 112.067 19.9745 110.886 20.0201V20.0483Z" fill="#1F304C"/>
<path fill-rule="evenodd" clip-rule="evenodd" d="M117.548 25.279C117.874 25.6235 118.271 25.8929 118.711 26.0685C119.097 26.2328 119.511 26.3191 119.931 26.3222C120.1 26.3545 120.275 26.3235 120.423 26.2351C120.572 26.1468 120.682 26.0073 120.734 25.8429C120.688 25.6789 120.584 25.5371 120.442 25.4438C120.299 25.3505 120.128 25.312 119.959 25.3353C119.416 25.2486 118.879 25.1285 118.352 24.9758C117.647 24.7643 116.237 24.3484 116.237 22.713C116.241 22.3823 116.312 22.0558 116.446 21.7531C116.579 21.4503 116.771 21.1774 117.012 20.9506C117.778 20.3222 118.751 20.0029 119.74 20.0554C120.327 20.0598 120.911 20.1307 121.482 20.2669C122.191 20.4098 122.856 20.7217 123.42 21.1762L121.763 22.6848C121.186 22.2625 120.497 22.0176 119.783 21.9798C119.663 21.9798 119.127 21.9799 119.127 22.3817C119.127 22.6636 119.331 22.713 120.361 22.9597C121.072 23.0674 121.768 23.2615 122.433 23.5378C122.802 23.7257 123.111 24.0138 123.325 24.3691C123.538 24.7244 123.647 25.1325 123.639 25.5468C123.639 27.0695 122.37 28.4089 119.973 28.4089C118.451 28.4237 116.978 27.8707 115.842 26.858L117.555 25.293L117.548 25.279Z" fill="#1F304C"/>
<path fill-rule="evenodd" clip-rule="evenodd" d="M125.81 25.279C126.135 25.6235 126.532 25.8929 126.973 26.0685C127.359 26.2328 127.773 26.3191 128.192 26.3222C128.362 26.3545 128.537 26.3235 128.685 26.2351C128.833 26.1468 128.944 26.0073 128.996 25.8429C128.95 25.6789 128.846 25.5371 128.703 25.4438C128.561 25.3505 128.389 25.312 128.221 25.3353C127.678 25.2487 127.141 25.1286 126.613 24.9758C125.908 24.7643 124.499 24.3484 124.499 22.713C124.503 22.3823 124.574 22.0558 124.707 21.7531C124.84 21.4503 125.033 21.1774 125.274 20.9506C126.04 20.3222 127.013 20.0029 128.002 20.0554C128.589 20.0598 129.173 20.1307 129.743 20.2669C130.453 20.4092 131.118 20.7212 131.682 21.1762L130.025 22.6848C129.447 22.2625 128.759 22.0176 128.044 21.9798C127.925 21.9798 127.389 21.9799 127.389 22.3817C127.389 22.6636 127.6 22.713 128.629 22.9597C129.341 23.0674 130.037 23.2615 130.702 23.5378C131.071 23.7257 131.38 24.0138 131.593 24.3691C131.807 24.7244 131.915 25.1325 131.907 25.5468C131.907 27.0695 130.639 28.4089 128.242 28.4089C126.72 28.4237 125.247 27.8707 124.111 26.858L125.824 25.293L125.81 25.279Z" fill="#1F304C"/>
</g>
<defs>
<clipPath id="clip0">
<rect width="131.886" height="42" fill="white"/>
</clipPath>
</defs>
</svg>
